X: 185
T: Da Liancheng
%%abc-version 2.0
%%abcx-abcm2ps-target-version 5.9.1 (29 Sep 2008)
%%abc-creator hum2abc beta
%%abcx-conversion-date 2013/10/02 07:52:29
%%abc-edited-by Helmut Schaffrath
%%humdrum-veritas 3676586396
%%humdrum-veritas-data 3657741009
%%continueall 1
%%barnumbers 0
L: 1/8
M: 2/4
K: C
c2G A [I:setbarnb 1]| 
c4 | 
e B A G | 
E4 | 
c de2 | 
d ec2 | 
e B A G | 
E4 | 
c Ac2 | 
A GE2 | 
c A c c | 
A GE2 | 
c d e c | 
d4 | 
c de2 | 
d ec2 | 
e2G A | 
c2B A | 
G4 |]  



